gama.ui.shared/icons_svg/light/toolbar/font.reset.svg

<svg height="24.75" viewBox="-788.811 -2877.423 24.75 24.75" width="24.75" xmlns="http://www.w3.org/2000/svg"><g fill="none"><circle cx="-776.436" cy="-2865.048" fill="#666" r="8"/><circle cx="-776.436" cy="-2865.048" r="8"/><circle cx="-776.436" cy="-2865.048" fill="#fff" r="8"/><circle cx="-776.436" cy="-2865.048" r="8"/><g fill="#5c76a1"><path d="m-776.4359-2857.048c-4.41905 0-8-3.581-8-8s3.58095-8 8-8c4.419 0 8 3.581 8 8s-3.581 8-8 8zm0-.762c4 0 7.2381-3.238 7.2381-7.238s-3.2381-7.238-7.2381-7.238-7.2381 3.238-7.2381 7.238 3.2381 7.238 7.2381 7.238z"/><path d="m-779.4835-2866.2213c-.2134 0-.381-.1677-.381-.381s.1676-.3809.381-.3809h6.0952c.21335 0 .381.1676.381.3809s-.16765.381-.381.381z"/><path d="m-779.4835-2863.1128c-.2134 0-.381-.1676-.381-.3809s.1676-.381.381-.381h6.0952c.21335 0 .381.1677.381.381s-.16765.3809-.381.3809z"/></g></g></svg>

<?xml version="1.0" encoding="UTF-8" standalone="no"?>
<!DOCTYPE svg PUBLIC "-//W3C//DTD SVG 1.1//EN" "http://www.w3.org/Graphics/SVG/1.1/DTD/svg11.dtd">
<svg xmlns="http://www.w3.org/2000/svg" xmlns:dc="http://purl.org/dc/elements/1.1/" version="1.1" xmlns:xl="http://www.w3.org/1999/xlink" viewBox="-788.8109 -2877.423 24.75 24.75" width="24.75" height="24.75">
  <defs/>
  <g id="SOURCES" stroke-dasharray="none" stroke-opacity="1" stroke="none" fill="none" fill-opacity="1">
    <title>SOURCES</title>
    <g id="SOURCES_Calque_4">
      <title>Calque 4</title>
      <g id="Graphic_12330">
        <circle cx="-776.4359" cy="-2865.048" r="8.00000702080158" fill="#666"/>
        <circle cx="-776.4359" cy="-2865.048" r="8.00000702080158" stroke="black" stroke-linecap="round" stroke-linejoin="round" stroke-width="0"/>
      </g>
      <g id="Graphic_12329"/>
      <g id="Graphic_12328">
        <circle cx="-776.4359" cy="-2865.048" r="8.00000702080158" fill="white"/>
        <circle cx="-776.4359" cy="-2865.048" r="8.00000702080158" stroke="black" stroke-linecap="round" stroke-linejoin="round" stroke-width="0"/>
      </g>
      <g id="Graphic_12322">
        <path d="M -776.4359 -2857.048 C -780.85495 -2857.048 -784.4359 -2860.629 -784.4359 -2865.048 C -784.4359 -2869.467 -780.85495 -2873.048 -776.4359 -2873.048 C -772.0169 -2873.048 -768.4359 -2869.467 -768.4359 -2865.048 C -768.4359 -2860.629 -772.0169 -2857.048 -776.4359 -2857.048 Z M -776.4359 -2857.81 C -772.4359 -2857.81 -769.1978 -2861.048 -769.1978 -2865.048 C -769.1978 -2869.048 -772.4359 -2872.286 -776.4359 -2872.286 C -780.4359 -2872.286 -783.674 -2869.048 -783.674 -2865.048 C -783.674 -2861.048 -780.4359 -2857.81 -776.4359 -2857.81 Z" fill="#5c76a1"/>
      </g>
      <g id="Graphic_12320">
        <path d="M -779.4835 -2866.2213 C -779.6969 -2866.2213 -779.8645 -2866.389 -779.8645 -2866.6023 C -779.8645 -2866.8156 -779.6969 -2866.9832 -779.4835 -2866.9832 L -773.3883 -2866.9832 C -773.17495 -2866.9832 -773.0073 -2866.8156 -773.0073 -2866.6023 C -773.0073 -2866.389 -773.17495 -2866.2213 -773.3883 -2866.2213 Z" fill="#5c76a1"/>
      </g>
      <g id="Graphic_12319">
        <path d="M -779.4835 -2863.1128 C -779.6969 -2863.1128 -779.8645 -2863.2804 -779.8645 -2863.4937 C -779.8645 -2863.707 -779.6969 -2863.8747 -779.4835 -2863.8747 L -773.3883 -2863.8747 C -773.17495 -2863.8747 -773.0073 -2863.707 -773.0073 -2863.4937 C -773.0073 -2863.2804 -773.17495 -2863.1128 -773.3883 -2863.1128 Z" fill="#5c76a1"/>
      </g>
    </g>
  </g>
</svg>
